packages/admin/admin-icons/icons/folder.svg

<svg xmlns="http://www.w3.org/2000/svg" width="16" height="16" viewBox="0 0 16 16"><path fill="#242424" fill-rule="evenodd" d="M6.5,2 C6.6060866,2 6.70869717,2.03371419 6.79350724,2.09520918 L6.85355339,2.14644661 L8.707,4 L15.5,4 C15.7454599,4 15.9496084,4.17687516 15.9919443,4.41012437 L16,4.5 L16,13.5 C16,13.7454599 15.8231248,13.9496084 15.5898756,13.9919443 L15.5,14 L13,14 C12.7238576,14 12.5,13.7761424 12.5,13.5 C12.5,13.2545401 12.6768752,13.0503916 12.9101244,13.0080557 L13,13 L15,13 L15,5 L8.5,5 C8.3939134,5 8.29130283,4.96628581 8.20649276,4.90479082 L8.14644661,4.85355339 L6.293,3 L1,3 L1,13 L8,13 C8.24545989,13 8.44960837,13.1768752 8.49194433,13.4101244 L8.5,13.5 C8.5,13.7454599 8.32312484,13.9496084 8.08987563,13.9919443 L8,14 L0.5,14 C0.254540111,14 0.0503916296,13.8231248 0.00805566941,13.5898756 L0,13.5 L0,2.5 C0,2.25454011 0.176875161,2.05039163 0.410124368,2.00805567 L0.5,2 L6.5,2 Z"/></svg>

<svg width="16" height="16" fill="none" viewBox="0 0 16 16">
  <path fill="#242424" fill-rule="evenodd" d="M6.5 2.001a.5.5 0 0 1 .294.095l.06.051 1.853 1.854H15.5a.5.5 0 0 1 .492.41l.008.09v9a.5.5 0 0 1-.41.492L15.5 14H13a.5.5 0 0 1-.09-.992L13 13h2V5H8.5a.5.5 0 0 1-.294-.095l-.06-.051L6.293 3H1v10h7a.5.5 0 0 1 .492.41l.008.09a.5.5 0 0 1-.41.492L8 14H.5a.5.5 0 0 1-.492-.41L0 13.5v-11a.5.5 0 0 1 .41-.492L.5 2h6Z" clip-rule="evenodd"/>
</svg>
